X:1
T:Helsingborgs Polka
T:(No. 62 efter Olof Persson Norrgren)
R:Polka
O:Billeberga, Skåne
S:efter Olof Persson Norrgren
M:2/4
L:1/16
K:D
N:No 62 i ett fotograferat nothäfte. Bilden heter IMG_2618.JPG. Korrekturläsning pågår.
|: AFDF A2B2 | A2f2 f2ed | d2c2 cBA2 | B2A2 AGF2 | AFDF A2B2 |
A2f2 fed2 | d2c2 f3e | d2d2d2 z2 ::[K:A] cdcB ABcd | e2e2 B4 | {B}e2e2 d4 |
{c}a2a2 e4 | cdcB ABcd | {e}e2e2 B4 | edd2 F2G2 |[1 A2A2A2 z2 :|[2 ABAG A4 ]|

